!!!!SEGMENT: pl-wnifc--13846--050_anonim--piesni-polskie-i-ruskie-ludu-galicyjskiego-50-kaska-za-piec-maciek-za-nia.krn
!!!kernsource:
!!!cenid: 18xx:3272
!!!COM: Anonim
!!!COM-rismid: pe30004985
!!!CDT:
!!!CNT:
!!!GTL: Pieśni polskie i ruskie ludu galicyjskiego
!!!OTL: 50. Kaśka za piec Maciek za nią
!!!PDT: 1833
!!!AGN:
!!!SMS-siglum: PL-Wnifc
!!!SMS-shelfmark: 13846
!!!SMS-shelfwork: 050 G
!!!SMS-variant:
!!!SMS-altvar:
!!!NIFC-rismid: 1001037042
!!!URL-scan: http://repozytorium.nifc.pl/skany/pl-wnifc-nut--13846
!!!ONB-nifc:
!!!OMD: Mazur
!!!key: A
**kern	**kern	**kern	**text
*part2	*part2	*part1	*part1
*staff3	*staff2	*staff1	*staff1
*I"Fortepian	*I"Fortepian	*	*
*Ipiano	*Ipiano	*	*
*ICklav	*ICklav	*	*
*IGacmp	*IGacmp	*	*
*clefF4	*clefG2	*clefG2	*
*k[f#c#g#]	*k[f#c#g#]	*k[f#c#g#]	*
*A:	*A:	*A:	*
*M3/8	*M3/8	*M3/8	*
=1	=1	=1	=1
!	!	!LO:TX:a:t=D.b.Б.\n593.	!
8AA\	16a|>\LL	16a/	Ka-
.	16cc#|>\JJ	16cc#\	-śka
!!LO:LB:g=original
=-	=-	=-	=-
8A\^L 8c#\	(16ff#\LL	(16ff#\LL	za
.	16ee\JJ)	16ee\JJ)	.
8A\^J 8c#\	8ee|>\	8ee\	piec
=2	=2	=2	=2
8E\L	16e|</LL	16e/	Ma-
.	16g#|</JJ	16g#/	-ciek
8E\ 8G#\ 8d\	8b|</	8b/	za
8A\J 8c#\	8a|</	8a/	nią
=3	=3	=3	=3
!LO:TX:t=P:problem=mixed beam	!	!	!
8AA/L	16a|>/LL	16a/	o-
.	16cc#|>\	16cc#\	-ba-
8A\^ 8c#\	(16ff#\	(16ff#\LL	-li-
.	16ee\JJ)	16ee\JJ)	.
8A\^J 8c#\	8ee\	8ee\	-li
!!LO:LB:g=original
=4	=4	=4	=4
8E\L	16e|</LL	16e/	o-
.	16g#|</JJ	16g#/	-cet
8E\ 8G#\ 8e\	8b/L	8b/	z ba-
8A\J 8c#\	8a|</J	8a/	-nią
=5	=5	=5	=5
*^	*	*	*
8AA/L	4.AA\	16a/LL 16cc#/	16cc#\	już
.	.	16cc#\JJ 16ee\	16ee\	ci
8E\ 8A\ 8c#\	.	4b#X\ 4dd#X\	8dd#X\	o-
8E\J 8A\ 8c#\	.	.	8ee\	-cet
=6	=6	=6	=6	=6
!LO:TX:t=P:problem=mixed beam	!	!	!	!
!LO:N:vis=4.	!	!	!	!
8DD/L 8AA/	4.DD\ 4.AA\	16dd\LL 16ff#\	16ff#\	ja-
.	.	16ee\JJ 16gg#\	16gg#\	-ko
8D\ 8F#\ 8A\ 8d\	.	8ff#\ 8aa\	8aa\	o-
8D\J 8F#\ 8A\ 8d\	.	8dd\ 8ff#\	8ff#\	-cet
*v	*v	*	*	*
!!LO:LB:g=original
=7	=7	=7	=7
8AAA/ 8AA/	16cc#\LL 16ee\	16ee\	a-
.	.	8qee/	.
.	16ee\JJ	16ee\	-le
8E\L 8A\ 8c#\	8cc#\L	8cc#\	Ma-
8E\J 8A\ 8c#\	8a\J	8a/	-ciek
=8	=8	=8	=8
8EE\L	16g#\LL 16b\	16b\	Kaś-
.	16a\JJ 16cc#\	16cc#\	-ki
(>8E\ [<8G#\ 8B\	8b\L 8dd\	8dd\	do-
8E\J) 8G#\] 8d\	8g#\J 8b\	8b\	-sed.
!!LO:PB:g=original
==	==	==	==
*-	*-	*-	*-
!!!system-decoration: s1,{(s2,s3)}
!!!RDF**kern: < = below
!!!RDF**kern: > = above
!!!RDF**kern: | = vertical stroke
!!!AIN: 1 piano
!!!ENC: Marta Chmielewska
!!!END: 2021-11-10
